!!!COM: Mozart
!!!OTL: 12 Variations on "Ah Vous dirais-je, Maman" for the Piano,
!!!Variation: 6 b
**kern	**kern
*M2/4	*M2/4
=-	=-
4GG 4E	16GLL
.	16F#
.	16G
.	16F#JJ
4GG 4E	16GLL
.	16F#
.	16G
.	16F#JJ
=	=
4GG 4D 4F	16GLL
.	16F#
.	16G
.	16F#JJ
4GG 4D 4F	16GLL
.	16A
.	16B
.	16GJJ
=	=
4GG 4C 4E	16cLL
.	16B
.	16c
.	16dJJ
4GG 4C 4E	16eLL
.	16d
.	16e
.	16f#JJ
=	=
4GG 4BB 4D	16gLL
.	16f#
.	16g
.	16f#JJ
4GG 4BB 4D	16gLL
.	16f#
.	16g
.	16f#JJ
=	=
4GG 4E 4G	16gLL
.	16f#
.	16g
.	16f#JJ
4GG 4E 4G	16gLL
.	16f#
.	16g
.	16f#JJ
=	=
4GG 4D 4F	16gLL
.	16f#
.	16g
.	16f#JJ
4GG 4D 4F	16gLL
.	16a
.	16b
.	16gJJ
=	=
4GG 4C 4E	16ccLL
.	16b
.	16cc
.	16ddJJ
4GG 4C 4E	16eeLL
.	16dd
.	16ee
.	16ff#JJ
=	=
4GG 4BB 4D	16ggLL
.	16aa
.	16ff
.	16ggJJ
4r	16eeLL
.	16ff
.	16dd
.	16eeJJ
=	=
*-	*-
